!!!Melodie: eigene
!!!Typ: Lied
**kern	**silbe	**silbe	**silbe
*clefG2	*lang:DE	*lang:DE	*lang:DE
*M4/4	*	*	*
*met(c)	*	*	*
2c	Wach#	Zi#	Glo#
2e	#et	#on	#ri#
2.g	auf!	hört	#a
4g	Ruft	die	sei
4g	uns	Wäch#	dir
4g	die	#ter	ge#
(4a	Stim#	sin#	#sun#
4g	|	|	|
2a)	|	|	|
2g	#me	#gen,	#gen
=	=	=	=
4r	%	%	%
4g	der	das	mit
4cc	Wäch#	Herz	Men#
4g	#ter	tut	#schen
4cc	sehr	ihr	und
4ee	hoch	von	eng#
4dd	auf	Freu#	#lisch#
4ee	der	#den	#en
2dd	Zin#	sprin#	Zun#
2g	#ne,	#gen,	#gen,
=	=	=	=
4r	%	%	%
4g	wach	sie	mit
4cc	auf,	wach#	Har#
4g	du	#et	#fen
4a	Stadt	und	und
4e	Je#	steht	mit
4f	#ru#	ei#	Zim#
4d	#sa#	#lend	#beln
1c	#lem!	auf.	schön.
=	=	=	=
2c	Mit#	Ihr	Von
2e	#ter#	Freund	zwölf
2.g	#nacht	kommt	Per#
4g	heißt	vom	#len
4g	die#	Him#	sind
4g	#se	#mel	die
(4a	Stun#	präch#	To#
4g	|	|	|
2a)	|	|	|
2g	#de,	#tig,	#re
=	=	=	=
4r	%	%	%
4g	sie	von	an
4cc	ru#	Gna#	dei#
4g	#fen	#den	#ner
4cc	uns	stark,	Stadt,
4ee	mit	von	wir
4dd	hel#	Wahr#	steh’n
4ee	#lem	#heit	im
2dd	Mun#	mäch#	Cho#
2g	#de:	#tig,	#re
=	=	=	=
4r	%	%	%
4g	wo	Ihr	der
4cc	seid	Licht	En#
4g	ihr	wird	#geln
4a	klu#	hell,	hoch
4e	#gen	ihr	um
4f	Jung#	Stern	dei#
4d	#frau#	geht	#nen
2c	#en?	auf.	Thron.
=	=	=	=
4r	%	%	%
4g	Wohl#	Nun	kein
2.g	#auf!	komm,	Aug’
4f	Der	du	hat
4e	Bräut#	wer#	je
4d	#'gam	#te	ge#
2c	kommt!	Kron’,	#spürt,
=	=	=	=
4r	%	%	%
4g	Steht	Herr	kein
2.g	auf,	Je#	Ohr
4f	die	#su	hat
4e	Lam#	Got#	je
4d	#pen	#tes	ge#
2c	nehmt!	Sohn!	#hört,
=	=	=	=
4d	Hal#	Ho#	sol#
4e	#le#	#si#	#che
2f	#lu#	#an#	Freu#
2e	#ja!	#na!	#de;
=	=	=	=
2g	Macht	Wir	d’rum
4a	euch	fol#	jauch#
4b	be#	#gen	#zen
2cc	#reit	all’	wir
=	=	=	=
2cc	zu	zum	und
4ee	der	Freu#	sin#
4dd	Hoch#	#den#	#gen
2cc	#zeit;	#saal	dir
=	=	=	=
2g	ihr	und	das
4cc	müs#	hal#	Hal#
4g	#set	#ten	#le#
4a	ihm	mit	#lu#
4e	ent#	das	#ja
4f	#ge#	A#	für
4d	#gen#	#bend#	und
1;c	#geh'n!	#mahl.	für.
==	==	==	==
*-	*-	*-	*-
